X: 1
T: Newcastle Hornpipe
N: by James Hill, in Kohlers' Violin Repository, 1885, Hardie p.61
Z: John Chambers <jc@trillian.mit.edu>
M: 12/16
L: 1/16
K: Bb
d2c \
| B3 B,3 dcB AGF \
| E3 g3- g3 f2e \
| dfd B3 cec A2c \
|1 B2b a2g f2e \
:|2 B3 {a}b3 B3 z3 ||
|| {A,}B,2D F2B d2f b2a \
| g2^f g2a g3- g3 \
| A,2C F2A c2f a2g \
| f2=e f2g f3 z3 |
| {A,}B,2D F2B d2f b2a \
| g2^f g2a g3 =f2e \
| dfd B3 cec A2c \
| B3 {a}b3 B3 ||
|| {A,}B,2D F2B d2f b2a \
| g2^f g2a g3- g3 \
| A,2C F2A c2f a2g \
| f2=e f2g f2_e d2A, |
| {A,}B,2D F2B d2f b2a \
| g2^f g2a g3 =f2e \
| dfd B3 cec A2c \
| B3 {a}b3 B3 |]
